assets/icons/qvision/check_circle_outline.svg

<svg xmlns="http://www.w3.org/2000/svg" height="24" viewBox="0 0 24 24" width="24"><path d="M0 0h24v24H0V0zm0 0h24v24H0V0z" fill="none"/><path d="M16.59 7.58L10 14.17l-3.59-3.58L5 12l5 5 8-8zM12 2C6.48 2 2 6.48 2 12s4.48 10 10 10 10-4.48 10-10S17.52 2 12 2zm0 18c-4.42 0-8-3.58-8-8s3.58-8 8-8 8 3.58 8 8-3.58 8-8 8z"/></svg>

<svg width="24" height="24" viewBox="0 0 24 24" fill="none" xmlns="http://www.w3.org/2000/svg">
<g clip-path="url(#clip0_147_4008)">
<path d="M16.59 7.58L10 14.17L6.41 10.59L5 12L10 17L18 9L16.59 7.58ZM12 2C6.48 2 2 6.48 2 12C2 17.52 6.48 22 12 22C17.52 22 22 17.52 22 12C22 6.48 17.52 2 12 2ZM12 20C7.58 20 4 16.42 4 12C4 7.58 7.58 4 12 4C16.42 4 20 7.58 20 12C20 16.42 16.42 20 12 20Z" fill="#323232"/>
</g>
<defs>
<clipPath id="clip0_147_4008">
<rect width="24" height="24" fill="white"/>
</clipPath>
</defs>
</svg>
